X: 28849
T: My Wife's A Wanton Wee Thing
R: jig
M: 6/8
K: Dmixolydian
dAd efe|d3 A2 B|cdc cAF|c3 A2 F|
dAd efe|d3 a2 g|faf ece|d3 d2:|
fgf dAd|f3 a2 f|efe cAc|e3 g2 e|
fgf dAd|f3 a2 g|fdf ece|d3 d2:|

